images/mouse.svg

<svg width="17" height="49" viewBox="0 0 17 49" fill="none" xmlns="http://www.w3.org/2000/svg">
<path d="M11.6167 33.1549L8.49999 36.3414L5.38333 33.1549C5.00555 32.7687 4.43888 32.7687 4.0611 33.1549C3.68333 33.5412 3.68333 34.1205 4.0611 34.5068L7.83888 38.3691C8.02777 38.5623 8.26388 38.6588 8.49999 38.6588C8.7361 38.6588 8.97222 38.5623 9.16111 38.3691L12.9389 34.5068C13.3167 34.1205 13.3167 33.5412 12.9389 33.1549C12.5611 32.7687 11.9944 32.7687 11.6167 33.1549Z" fill="#22293B"/>
<path d="M12.9388 43.4962C12.561 43.11 11.9943 43.11 11.6165 43.4962L8.49987 46.6827L5.38321 43.4962C5.00543 43.11 4.43876 43.11 4.06098 43.4962C3.6832 43.8825 3.6832 44.4618 4.06098 44.8481L7.83876 48.7104C8.02765 48.9036 8.26376 49.0001 8.49987 49.0001C8.73598 49.0001 8.97209 48.9036 9.16098 48.7104L12.9388 44.8481C13.3165 44.4618 13.3165 43.8825 12.9388 43.4962Z" fill="#22293B"/>
<path d="M4.15983e-07 8.69054L1.16167e-06 17.3809C1.57179e-06 22.1606 3.825 26.0713 8.5 26.0713C13.175 26.0713 17 22.1606 17 17.3809L17 8.69054C17 3.91083 13.175 0.000160558 8.5 0.000160974C3.825 0.000161391 5.85784e-09 3.91083 4.15983e-07 8.69054ZM8.5 1.93136C12.1361 1.93135 15.1111 4.97299 15.1111 8.69054L15.1111 17.3809C15.1111 21.0985 12.1361 24.1401 8.5 24.1401C4.86389 24.1401 1.88889 21.0985 1.88889 17.3809L1.88889 8.69054C1.88889 4.97299 4.86389 1.93136 8.5 1.93136Z" fill="#22293B"/>
<path d="M8.50007 20.7603C9.01952 20.7603 9.44452 20.3257 9.44452 19.7947L9.44452 16.8979C9.44452 16.3668 9.01952 15.9323 8.50007 15.9323C7.98063 15.9323 7.55563 16.3668 7.55563 16.8979L7.55563 19.7947C7.55563 20.3257 7.98063 20.7603 8.50007 20.7603Z" fill="#22293B"/>
</svg>

<svg xmlns="http://www.w3.org/2000/svg" width="17" height="49" fill="none"><path fill="#22293B" d="M11.62 33.15l-3.12 3.2-3.12-3.2c-.37-.38-.94-.38-1.32 0-.38.4-.38.97 0 1.36l3.78 3.87c.2.2.42.3.66.3.24 0 .47-.1.66-.3l3.78-3.86c.38-.38.38-.96 0-1.35-.38-.38-.95-.38-1.32 0zM12.94 43.5c-.38-.4-.95-.4-1.32 0L8.5 46.68 5.38 43.5c-.37-.4-.94-.4-1.32 0-.38.38-.38.96 0 1.35l3.78 3.86c.2.2.42.3.66.3.24 0 .47-.1.66-.3l3.78-3.85c.38-.4.38-.97 0-1.35zM0 8.7v8.68c0 4.78 3.83 8.7 8.5 8.7 4.68 0 8.5-3.92 8.5-8.7v-8.7C17 3.92 13.18 0 8.5 0 3.83 0 0 3.9 0 8.7zm8.5-6.77c3.64 0 6.6 3.04 6.6 6.76v8.68c0 3.72-2.96 6.76-6.6 6.76-3.64 0-6.6-3.04-6.6-6.76v-8.7c0-3.7 2.96-6.75 6.6-6.75zM8.5 20.76c.52 0 .94-.43.94-.97v-2.9c0-.53-.42-.97-.94-.97s-.94.44-.94.97v2.9c0 .53.42.96.94.96z"/></svg>
